learning-site/svg (112).svg

<svg xmlns="http://www.w3.org/2000/svg" xmlns:xlink="http://www.w3.org/1999/xlink" viewBox="0 0 100 100" version="1.1"><!-- Generator: Sketch 51.3 (57544) - http://www.bohemiancoding.com/sketch --><title>communicate-between-applications-with-an-azure-storage-queue</title><desc>Created with Sketch.</desc><defs><filter x="-1.4%" y="-1.8%" width="102.9%" height="107.0%" filterUnits="objectBoundingBox" id="filter-1"><feOffset dx="0" dy="2" in="SourceAlpha" result="shadowOffsetOuter1"></feOffset><feColorMatrix values="0 0 0 0 0   0 0 0 0 0   0 0 0 0 0  0 0 0 0.102156929 0" type="matrix" in="shadowOffsetOuter1" result="shadowMatrixOuter1"></feColorMatrix><feMerge><feMergeNode in="shadowMatrixOuter1"></feMergeNode><feMergeNode in="SourceGraphic"></feMergeNode></feMerge></filter></defs><g id="Badges-FINAL" stroke="none" stroke-width="1" fill="none" fill-rule="evenodd"><g id="Connecting-Web-&amp;-Services" transform="translate(-578.000000, -886.000000)"><g id="communicate-between-applications-with-an-azure-storage-queue" transform="translate(578.000000, 886.000000)"><rect id="BG" fill="#55A2FF" x="2" y="2" width="96" height="96" rx="48"></rect><g id="Cloud" filter="url(#filter-1)" transform="translate(10.650000, 18.400000)"><path d="M10.48005,54.52911 C9.07605,52.44921 8.79435,50.05611 8.81235,47.66751 C8.83035,45.47781 9.41445,43.33491 10.15425,41.26941 C11.00295,38.89791 11.80485,36.50211 13.27725,34.40151 C15.74865,30.87711 18.91485,28.27521 23.01345,26.86401 C23.55165,26.67861 24.14475,26.58321 24.13755,25.77501 C24.10695,22.28121 25.49475,19.23021 27.33075,16.39521 C29.91375,12.40911 32.88015,8.74791 37.33245,6.68331 C39.29085,5.77521 41.34915,5.18211 43.56405,5.43231 C46.67175,5.78421 48.28365,7.79121 49.10715,10.55961 C49.41855,11.60271 49.62375,11.45691 50.32755,10.86561 C52.71795,8.85951 55.26045,7.09731 58.40325,6.43491 C59.67945,6.16581 60.96285,6.36471 62.24175,6.29811 C59.88105,4.71051 57.49515,3.09411 54.85905,2.06991 C51.35895,0.71181 47.40975,1.99341 44.43525,3.92481 C43.77015,4.35771 43.98885,4.35771 43.34715,3.98331 C42.20595,3.31821 41.01885,2.72961 39.89385,2.03931 C38.10555,0.94131 36.26865,0.06381 34.08885,0.30411 C29.18295,0.80361 25.63965,3.63681 22.53465,7.14771 C19.09575,11.03481 16.89165,15.58071 15.73605,20.62341 C15.54075,21.47481 15.19785,21.81951 14.35635,22.06071 C11.65005,22.83381 9.49725,24.52311 7.68195,26.61021 C3.29445,31.65741 0.38835,37.34541 0.54135,44.22321 C0.61785,47.66571 1.81215,50.49891 5.27175,51.96051 C7.05195,52.71291 8.65755,53.84601 10.48005,54.52911" id="Fill-2764" fill="#E6E6E6"></path><path d="M68.13981,14.85963 C67.85361,10.82763 66.44781,7.72443 62.24121,6.29793 C60.96231,6.36543 59.67981,6.16563 58.40271,6.43473 C55.25991,7.09713 52.71741,8.85933 50.32791,10.86633 C49.62411,11.45673 49.41801,11.60253 49.10751,10.55943 C48.28401,7.79103 46.67121,5.78403 43.56351,5.43213 C41.34861,5.18193 39.29031,5.77503 37.33281,6.68313 C32.87961,8.74773 29.91321,12.40893 27.33021,16.39503 C25.49421,19.23003 24.10641,22.28103 24.13701,25.77483 C24.14421,26.58303 23.55201,26.67843 23.01291,26.86383 C18.91521,28.27503 15.74901,30.87693 13.27761,34.40133 C11.80431,36.50193 11.00331,38.89773 10.15371,41.26923 C9.41391,43.33473 8.82981,45.47853 8.81271,47.66733 C8.79471,50.05503 9.07641,52.44903 10.47951,54.52713 C10.69281,54.52443 10.85571,54.60993 10.95471,54.80433 C12.97161,56.49993 14.96151,56.59443 17.30331,55.20753 C24.18291,51.13233 31.07331,47.07243 37.97091,43.02603 L37.97091,26.80893 L46.20681,21.79593 L46.20681,38.21463 C50.73291,35.56953 55.25811,32.91903 59.79051,30.28473 C62.64981,28.62243 65.10321,26.65863 66.66291,23.70033 C67.75731,20.85453 68.35581,17.90883 68.13981,14.85963" id="Fill-2766" fill="#FFFFFF"></path><path d="M37.97136,26.80929 L37.97136,43.02639 C40.71366,41.41629 43.46226,39.81879 46.20636,38.21499 L46.20636,21.79629 L37.97136,26.80929 Z" id="Fill-2768" fill="#0078D4"></path><path d="M45.49041,31.82166 C45.49041,32.21676 45.33021,32.53806 45.13311,32.53806 C44.93511,32.53806 44.77491,32.21676 44.77491,31.82166 C44.77491,31.42656 44.93511,31.10526 45.13311,31.10526 C45.33021,31.10526 45.49041,31.42656 45.49041,31.82166" id="Fill-2770" fill="#E6E6E6"></path></g><g id="Man" transform="translate(78.650000, 58.400000)" fill="#314666"><path d="M6.13489,3.27911 C6.13489,4.86131 4.85239,6.14381 3.27019,6.14381 C1.68889,6.14381 0.40639,4.86131 0.40639,3.27911 C0.40639,1.69691 1.68889,0.41441 3.27019,0.41441 C4.85239,0.41441 6.13489,1.69691 6.13489,3.27911" id="Fill-2780"></path><path d="M3.27055,7.57607 C1.68835,7.57607 0.40585,8.85857 0.40585,10.44077 L0.40585,21.18227 L6.13525,21.18227 L6.13525,10.44077 C6.13525,8.85857 4.85275,7.57607 3.27055,7.57607" id="Fill-2782"></path></g><g id="Man" transform="translate(69.650000, 51.400000)" fill="#314666"><path d="M5.82547,3.83412 C5.82547,5.41632 4.54297,6.69972 2.96077,6.69972 C1.37947,6.69972 0.09697,5.41632 0.09697,3.83412 C0.09697,2.25282 1.37947,0.96942 2.96077,0.96942 C4.54297,0.96942 5.82547,2.25282 5.82547,3.83412" id="Fill-2776"></path><path d="M2.96113,8.13108 C1.37893,8.13108 0.09643,9.41358 0.09643,10.99578 L0.09643,21.73728 L5.82583,21.73728 L5.82583,10.99578 C5.82583,9.41358 4.54333,8.13108 2.96113,8.13108" id="Fill-2778"></path></g><g id="Man" transform="translate(59.650000, 46.400000)" fill="#314666"><path d="M5.79983,3.10535 C5.79983,4.68755 4.51733,5.97005 2.93513,5.97005 C1.35383,5.97005 0.07133,4.68755 0.07133,3.10535 C0.07133,1.52315 1.35383,0.24065 2.93513,0.24065 C4.51733,0.24065 5.79983,1.52315 5.79983,3.10535" id="Fill-2772"></path><path d="M2.93549,7.40231 C1.35329,7.40231 0.07079,8.68481 0.07079,10.26701 L0.07079,21.00851 L5.80019,21.00851 L5.80019,10.26701 C5.80019,8.68481 4.51769,7.40231 2.93549,7.40231" id="Fill-2774"></path></g><g id="Azure-Border" stroke="#0078D4" stroke-width="4"><rect x="2" y="2" width="96" height="96" rx="48"></rect></g></g></g></g></svg>

<svg xmlns="http://www.w3.org/2000/svg" viewBox="0 0 100 100"><defs><filter x="-1.4%" y="-1.8%" width="102.9%" height="107%" filterUnits="objectBoundingBox" id="a"><feOffset dy="2" in="SourceAlpha" result="shadowOffsetOuter1"/><feColorMatrix values="0 0 0 0 0 0 0 0 0 0 0 0 0 0 0 0 0 0 0.102156929 0" in="shadowOffsetOuter1" result="shadowMatrixOuter1"/><feMerge><feMergeNode in="shadowMatrixOuter1"/><feMergeNode in="SourceGraphic"/></feMerge></filter></defs><g fill="none" fill-rule="evenodd"><rect fill="#55A2FF" x="2" y="2" width="96" height="96" rx="48"/><g filter="url(#a)" transform="translate(10.65 18.4)"><path d="M10.48 54.53c-1.404-2.08-1.686-4.474-1.668-6.862.018-2.19.602-4.333 1.342-6.399.849-2.371 1.65-4.767 3.123-6.867 2.472-3.525 5.638-6.127 9.736-7.538.539-.185 1.132-.28 1.125-1.089-.031-3.494 1.357-6.545 3.193-9.38 2.583-3.986 5.55-7.647 10.001-9.712 1.959-.908 4.017-1.5 6.232-1.25 3.108.351 4.72 2.358 5.543 5.127.312 1.043.517.897 1.22.306 2.391-2.006 4.933-3.769 8.076-4.431 1.276-.27 2.56-.07 3.839-.137-2.36-1.587-4.747-3.204-7.383-4.228-3.5-1.358-7.45-.077-10.424 1.855-.665.433-.446.433-1.088.058-1.141-.665-2.328-1.253-3.453-1.944C38.106.941 36.269.064 34.089.304c-4.906.5-8.45 3.333-11.554 6.844-3.44 3.887-5.643 8.433-6.799 13.475-.195.852-.538 1.197-1.38 1.438-2.706.773-4.859 2.462-6.674 4.55C3.294 31.656.388 37.344.542 44.222c.076 3.443 1.27 6.276 4.73 7.738 1.78.752 3.386 1.885 5.208 2.568" fill="#E6E6E6"/><path d="M68.14 14.86c-.286-4.032-1.692-7.136-5.899-8.562-1.279.067-2.561-.132-3.838.137-3.143.662-5.686 2.424-8.075 4.431-.704.59-.91.737-1.22-.307-.824-2.768-2.437-4.775-5.544-5.127-2.215-.25-4.274.343-6.231 1.251-4.453 2.065-7.42 5.726-10.003 9.712-1.836 2.835-3.224 5.886-3.193 9.38.007.808-.585.903-1.124 1.089-4.098 1.411-7.264 4.013-9.735 7.537-1.474 2.1-2.275 4.497-3.124 6.868-.74 2.066-1.324 4.21-1.341 6.398-.018 2.388.263 4.782 1.667 6.86.213-.003.376.083.475.277 2.017 1.696 4.007 1.79 6.348.404 6.88-4.076 13.77-8.136 20.668-12.182V26.809l8.236-5.013v16.419c4.526-2.645 9.051-5.296 13.584-7.93 2.859-1.663 5.312-3.626 6.872-6.585 1.094-2.845 1.693-5.791 1.477-8.84" fill="#FFF"/><path d="M37.971 26.81v16.216c2.743-1.61 5.491-3.207 8.235-4.811V21.796l-8.235 5.013z" fill="#0078D4"/><path d="M45.49 31.822c0 .395-.16.716-.357.716-.198 0-.358-.321-.358-.716 0-.395.16-.717.358-.717.197 0 .357.322.357.717" fill="#E6E6E6"/></g><g fill="#314666"><path d="M84.785 61.68a2.865 2.865 0 1 1-5.73 0 2.865 2.865 0 0 1 5.73 0M81.92 65.976a2.865 2.865 0 0 0-2.864 2.865v10.741h5.73V68.841a2.865 2.865 0 0 0-2.865-2.865"/></g><g fill="#314666"><path d="M75.475 55.234a2.865 2.865 0 1 1-5.73 0 2.865 2.865 0 0 1 5.73 0M72.611 59.531a2.865 2.865 0 0 0-2.865 2.865v10.741h5.73V62.396a2.865 2.865 0 0 0-2.865-2.865"/></g><g fill="#314666"><path d="M65.45 49.505a2.865 2.865 0 1 1-5.73 0 2.865 2.865 0 0 1 5.73 0M62.585 53.802a2.865 2.865 0 0 0-2.864 2.865v10.742h5.73V56.667a2.865 2.865 0 0 0-2.866-2.865"/></g><rect x="2" y="2" width="96" height="96" rx="48" stroke="#0078D4" stroke-width="4"/></g></svg>
